X: 23
T: the Hyperactive Reel
C: Sarah Garrett
R: reel
N: Suggested tune for The Hyperactive Reel
B: RSCDS "A Second Book of Graded Scottish Country Dances" (Graded 2) p.47
Z: 2011 John Chambers <jc:trillian.mit.edu>
M: 4/4
L: 1/8
K: G
d |:\
"G"gBc^d "B/G"defg | "Am"agfe "D7"fdd2 | "G"gBc^c "Em"dGAB | "Am"cBAG "D7"FAD2 |
"G"gBc^d "B/G"defg | "C/Am"agfe "D7"fdd2 | "G"gdBd "C/Am"ecAc | "D7"BGAF "G"G4 ||
"G"DEGA "Em"Bded | "Am"cBAG "D7"FAD2 | "B/G"DEGA "E7"Bded | "Am"cB"D"Ad "G"BGG2 |
"G"DEGA "E7"Bded | "Am"cBAG "D7"FAdf | "B/G"gdBd "C/Am"ecAc | "D7"BGAF "G"G4 :|
